delete.svg

<svg width="38" height="38" viewBox="0 0 38 38" fill="none" xmlns="http://www.w3.org/2000/svg">
<rect width="38" height="38" rx="16" fill="#7F7F7F"/>
<path d="M18.9998 20.4008L14.0998 25.3008C13.9165 25.4841 13.6831 25.5758 13.3998 25.5758C13.1165 25.5758 12.8831 25.4841 12.6998 25.3008C12.5165 25.1174 12.4248 24.8841 12.4248 24.6008C12.4248 24.3174 12.5165 24.0841 12.6998 23.9008L17.5998 19.0008L12.6998 14.1008C12.5165 13.9174 12.4248 13.6841 12.4248 13.4008C12.4248 13.1174 12.5165 12.8841 12.6998 12.7008C12.8831 12.5174 13.1165 12.4258 13.3998 12.4258C13.6831 12.4258 13.9165 12.5174 14.0998 12.7008L18.9998 17.6008L23.8998 12.7008C24.0831 12.5174 24.3165 12.4258 24.5998 12.4258C24.8831 12.4258 25.1165 12.5174 25.2998 12.7008C25.4831 12.8841 25.5748 13.1174 25.5748 13.4008C25.5748 13.6841 25.4831 13.9174 25.2998 14.1008L20.3998 19.0008L25.2998 23.9008C25.4831 24.0841 25.5748 24.3174 25.5748 24.6008C25.5748 24.8841 25.4831 25.1174 25.2998 25.3008C25.1165 25.4841 24.8831 25.5758 24.5998 25.5758C24.3165 25.5758 24.0831 25.4841 23.8998 25.3008L18.9998 20.4008Z" fill="black"/>
</svg>

<?xml version="1.0" encoding="utf-8"?>
<!-- Generator: Adobe Illustrator 26.0.0, SVG Export Plug-In . SVG Version: 6.00 Build 0)  -->
<svg version="1.1" id="Слой_1" xmlns="http://www.w3.org/2000/svg" xmlns:xlink="http://www.w3.org/1999/xlink" x="0px" y="0px"
	 viewBox="0 0 38 38" style="enable-background:new 0 0 38 38;" xml:space="preserve">
<style type="text/css">
	.st0{fill:#7F7F7F;}
	.st1{fill:#FFFFFF;}
</style>
<path class="st0" d="M16,0h6c8.8,0,16,7.2,16,16v6c0,8.8-7.2,16-16,16h-6C7.2,38,0,30.8,0,22v-6C0,7.2,7.2,0,16,0z"/>
<path class="st1" d="M19,20.4l-4.9,4.9c-0.2,0.2-0.4,0.3-0.7,0.3c-0.3,0-0.5-0.1-0.7-0.3c-0.2-0.2-0.3-0.4-0.3-0.7
	c0-0.3,0.1-0.5,0.3-0.7l4.9-4.9l-4.9-4.9c-0.2-0.2-0.3-0.4-0.3-0.7c0-0.3,0.1-0.5,0.3-0.7c0.2-0.2,0.4-0.3,0.7-0.3
	c0.3,0,0.5,0.1,0.7,0.3l4.9,4.9l4.9-4.9c0.2-0.2,0.4-0.3,0.7-0.3s0.5,0.1,0.7,0.3c0.2,0.2,0.3,0.4,0.3,0.7c0,0.3-0.1,0.5-0.3,0.7
	L20.4,19l4.9,4.9c0.2,0.2,0.3,0.4,0.3,0.7c0,0.3-0.1,0.5-0.3,0.7c-0.2,0.2-0.4,0.3-0.7,0.3s-0.5-0.1-0.7-0.3L19,20.4z"/>
</svg>
